public/img/donkey.svg

<svg enable-background="new 0 0 333 416.2" viewBox="0 0 333 416.2" xmlns="http://www.w3.org/2000/svg"><path clip-rule="evenodd" d="m73.3 333.6c-19.5-43.7-14.6-103.3 7.3-145.8-10.9-41.3-6.1-92.3 43.7-167.6 4.9-7.3 9.7-4.9 10.9 2.4 8.5 44.9 4.9 83.8-2.4 119 3.6-1.2 8.5-2.4 12.1-3.6 8.5-13.4 14.6-19.4 21.9-24.3-1.2 8.5-4.9 21.9-1.2 19.4 6.1-3.6 12.1-12.1 19.4-10.9-2.4 7.3-2.4 9.7-3.6 13.4 3.6 2.4 14.6 4.9 18.2 6.1-7.3-35.2-9.7-74.1-2.4-119 1.2-7.3 6.1-9.7 10.9-2.4 51 75.3 54.7 126.3 43.7 167.6 23.1 42.5 26.7 102 8.5 145.8-1.2 36.4-42.5 66.8-93.5 66.8-52.2-.1-93.5-30.5-93.5-66.9zm32.8 24.3c-1.2 0-2.4-2.4-1.2-4.9 1.2-1.2 3.6-2.4 6.1-1.2 18.2 12.1 36.4 17 55.9 17 18.2 0 36.4-6.1 55.9-17 1.2-1.2 3.6 0 4.9 1.2 1.2 2.4 0 4.9-1.2 6.1-20.7 10.9-40.1 17-59.5 17-20.8 1.2-40.3-4.8-60.9-18.2zm12.1-46.2c6.1 0 12.1 4.9 12.1 12.1 0 6.1-6.1 12.1-12.1 12.1-7.3 0-12.1-6.1-12.1-12.1 0-7.2 4.8-12.1 12.1-12.1zm96 0c7.3 0 13.4 4.9 13.4 12.1 0 6.1-6.1 12.1-13.4 12.1-6.1 0-12.1-6.1-12.1-12.1-.1-7.2 6-12.1 12.1-12.1zm-47.4-37.6c46.2 0 83.8 26.7 83.8 58.3 0 32.8-37.7 58.3-83.8 58.3s-83.8-25.5-83.8-58.3c0-31.6 37.6-58.3 83.8-58.3zm47.4-59.5c-6.1 0-10.9 4.9-10.9 10.9 0 7.3 4.9 12.1 10.9 12.1 7.3 0 12.1-4.9 12.1-12.1 0-6.1-4.8-10.9-12.1-10.9zm-2.4 4.8c-2.4 0-3.6 2.4-3.6 3.6 0 2.4 1.2 4.9 3.6 4.9 1.2 0 3.6-2.4 3.6-4.9 0-1.2-2.4-3.6-3.6-3.6zm2.4-12.1c-9.7 0-18.2 8.5-18.2 18.2 0 10.9 8.5 19.4 18.2 19.4 10.9 0 19.4-8.5 19.4-19.4 0-9.7-8.5-18.2-19.4-18.2zm27.9-34c-8.5-10.9-17-19.4-27.9-25.5-6.1-27.9-10.9-58.3-9.7-93.5 0-9.7 6.1-9.7 10.9-1.2 23.1 41.2 31.6 74 26.7 120.2zm-123.9 41.3c6.1 0 12.1 4.9 12.1 10.9 0 7.3-6.1 12.1-12.1 12.1-6.1 0-12.1-4.9-12.1-12.1 0-6.1 6-10.9 12.1-10.9zm3.7 4.8c1.2 0 3.6 2.4 3.6 3.6 0 2.4-2.4 4.9-3.6 4.9-2.4 0-3.6-2.4-3.6-4.9-.1-1.2 1.1-3.6 3.6-3.6zm-3.7-12.1c10.9 0 19.4 8.5 19.4 18.2 0 10.9-8.5 19.4-19.4 19.4s-19.4-8.5-19.4-19.4c0-9.7 8.5-18.2 19.4-18.2zm-27.9-34c8.5-10.9 17-19.4 27.9-25.5 6.1-27.9 10.9-58.3 9.7-93.5 0-9.7-4.9-9.7-9.7-1.2-23.1 41.2-32.8 74-27.9 120.2z" fill-rule="evenodd"/></svg>

<?xml version="1.0" encoding="utf-8"?>
<!-- Generator: Adobe Illustrator 23.0.6, SVG Export Plug-In . SVG Version: 6.00 Build 0)  -->
<svg version="1.1" id="Layer_1" xmlns="http://www.w3.org/2000/svg" xmlns:xlink="http://www.w3.org/1999/xlink" x="0px" y="0px"
	 viewBox="0 0 333 416.2" style="enable-background:new 0 0 333 416.2;" xml:space="preserve">
<style type="text/css">
	.st0{fill-rule:evenodd;clip-rule:evenodd;}
</style>
<g>
	<path class="st0" d="M73.3,333.6c-19.5-43.7-14.6-103.3,7.3-145.8c-10.9-41.3-6.1-92.3,43.7-167.6c4.9-7.3,9.7-4.9,10.9,2.4
		c8.5,44.9,4.9,83.8-2.4,119c3.6-1.2,8.5-2.4,12.1-3.6c8.5-13.4,14.6-19.4,21.9-24.3c-1.2,8.5-4.9,21.9-1.2,19.4
		c6.1-3.6,12.1-12.1,19.4-10.9c-2.4,7.3-2.4,9.7-3.6,13.4c3.6,2.4,14.6,4.9,18.2,6.1c-7.3-35.2-9.7-74.1-2.4-119
		c1.2-7.3,6.1-9.7,10.9-2.4c51,75.3,54.7,126.3,43.7,167.6c23.1,42.5,26.7,102,8.5,145.8c-1.2,36.4-42.5,66.8-93.5,66.8
		C114.6,400.4,73.3,370,73.3,333.6z M106.1,357.9c-1.2,0-2.4-2.4-1.2-4.9c1.2-1.2,3.6-2.4,6.1-1.2c18.2,12.1,36.4,17,55.9,17
		c18.2,0,36.4-6.1,55.9-17c1.2-1.2,3.6,0,4.9,1.2c1.2,2.4,0,4.9-1.2,6.1c-20.7,10.9-40.1,17-59.5,17
		C146.2,377.3,126.7,371.3,106.1,357.9z M118.2,311.7c6.1,0,12.1,4.9,12.1,12.1c0,6.1-6.1,12.1-12.1,12.1c-7.3,0-12.1-6.1-12.1-12.1
		C106.1,316.6,110.9,311.7,118.2,311.7z M214.2,311.7c7.3,0,13.4,4.9,13.4,12.1c0,6.1-6.1,12.1-13.4,12.1c-6.1,0-12.1-6.1-12.1-12.1
		C202,316.6,208.1,311.7,214.2,311.7z M166.8,274.1c46.2,0,83.8,26.7,83.8,58.3c0,32.8-37.7,58.3-83.8,58.3S83,365.2,83,332.4
		C83,300.8,120.6,274.1,166.8,274.1z M214.2,214.6c-6.1,0-10.9,4.9-10.9,10.9c0,7.3,4.9,12.1,10.9,12.1c7.3,0,12.1-4.9,12.1-12.1
		C226.3,219.4,221.5,214.6,214.2,214.6z M211.8,219.4c-2.4,0-3.6,2.4-3.6,3.6c0,2.4,1.2,4.9,3.6,4.9c1.2,0,3.6-2.4,3.6-4.9
		C215.4,221.8,213,219.4,211.8,219.4z M214.2,207.3c-9.7,0-18.2,8.5-18.2,18.2c0,10.9,8.5,19.4,18.2,19.4c10.9,0,19.4-8.5,19.4-19.4
		C233.6,215.8,225.1,207.3,214.2,207.3z M242.1,173.3c-8.5-10.9-17-19.4-27.9-25.5c-6.1-27.9-10.9-58.3-9.7-93.5
		c0-9.7,6.1-9.7,10.9-1.2C238.5,94.3,247,127.1,242.1,173.3z M118.2,214.6c6.1,0,12.1,4.9,12.1,10.9c0,7.3-6.1,12.1-12.1,12.1
		c-6.1,0-12.1-4.9-12.1-12.1C106.1,219.4,112.1,214.6,118.2,214.6z M121.9,219.4c1.2,0,3.6,2.4,3.6,3.6c0,2.4-2.4,4.9-3.6,4.9
		c-2.4,0-3.6-2.4-3.6-4.9C118.2,221.8,119.4,219.4,121.9,219.4z M118.2,207.3c10.9,0,19.4,8.5,19.4,18.2c0,10.9-8.5,19.4-19.4,19.4
		s-19.4-8.5-19.4-19.4C98.8,215.8,107.3,207.3,118.2,207.3z M90.3,173.3c8.5-10.9,17-19.4,27.9-25.5c6.1-27.9,10.9-58.3,9.7-93.5
		c0-9.7-4.9-9.7-9.7-1.2C95.1,94.3,85.4,127.1,90.3,173.3z"/>
</g>
</svg>
